X:1
T:Title
%%score { 1 | 2 }
L:1/8
M:4/4
K:Bb
V:1 treble nm="Grand Piano"
V:2 bass 
V:1
 z4 z2 z[Q:1/4=90] [Fd] | [Fd][Ge][Ec][Fd] [DB] [DB]2 [DF] | [EG][FA][GB][EG] [DF]3 [DF] | %3
 [EG][GB][GB][^Fc] [=Fd] [DB]2 [DF] | [C=E][EG][Ec][EB] A3 F | [Fd][Ge][Ec][Fd] [DB] [DB]2 [DF] | %6
 [EG][FA][GB][Gc] [^Fd]3 [=Fd] | fdcB [GB] G2 G |[M:7/8] FBB c [DB]3 |[M:1/8] [Fd] | %10
[M:4/4] [Ge][Ge][GB][^Fc] [=Fd] [Fd]2 [Fd] | [=Ed][EG][EG][Ec] [Fc]3 [Fc] | %12
[M:17/16] [Fd][FB][Fc][FA][FB][Fd][Ff]3/2[Ge] |[M:7/8] dFc d [DB]3 |] %14
V:2
 z4 z2 z [B,,B,] | [B,,B,][B,,B,][F,A,][F,A,] [B,,B,] [B,,B,]2 [B,,B,] | %2
 [E,B,][E,B,][E,E][E,B,] [B,,B,]3 [B,,B,] | [E,B,][E,B,][E,B,][E,B,] [B,,B,] [B,,B,]2 [B,,B,] | %4
 [C,B,][C,B,][C,G,][C,C] [F,CF]3 [F,A,] | [B,,B,][B,,B,][F,A,][F,A,] [B,,B,] [B,,B,]2 [B,,B,] | %6
 [E,B,][E,B,][E,B,][E,G,] [D,A,]3 [B,,B,] | %7
 [B,DF][B,DF][K:bass][F,A,E][G,B,D] [E,B,] [E,B,E]2 [=E,B,_D] | %8
[M:7/8] [F,B,D][F,B,D][F,D] [F,A,E] [B,,B,]3 |[M:1/8] [B,,B,] | %10
[M:4/4] [E,B,][E,B,][E,B,][E,B,] [B,,B,] [B,,B,]2 [B,,B,] | %11
 [C,B,][C,B,][C,B,][C,G,] [F,A,]3 [F,A,] | %12
[M:17/16] [B,,B,][D,B,][C,A,][E,C][D,B,][B,,B,][B,D]3/2[E,B,] | %13
[M:7/8] [F,B,F][F,B,D][F,A,E] [F,A,F] [B,,B,]3 |] %14

